X:1
T:Title
%%score { ( 1 3 4 6 ) | ( 2 5 ) }
L:1/8
M:4/4
K:Db
V:1 treble nm="Grand Piano"
V:3 treble 
V:4 treble 
V:6 treble 
V:2 bass 
V:5 bass 
V:1
 z4 z2[Q:1/4=100] [DF][EG] | [FA]2 [_F=G]2 [=FA]2 [Fd][Ac] | B2 =A2 B2 ed | %3
 c2 [CE][CF] [CG]2 [Gc][CGB] | [DFA]6 [A,DF][A,EG] | [FA]2 [_F=G]2 [=FA]2 [Fd][Ac] | %6
 B2 =A2 B2 c[_Ad] | [Ae]2 [CA][=DAB] [EAc]2 [D=GB]>[DGB] |[M:3/4] [CEA]6 |[M:1/4] FA | %10
[M:4/4] d3- d/d/- d2 z2 | z2 .F>d .[Ff]2 z2 | z2 .C>A z/ e/a/c'/ [Bgb]2 | %13
 .a2 d/f/a/d'/ .f'2 F[EG] | [FA]2 [_F=G][=FA] [Fd]2 [_Gc][Ad] | edcd B4 | e3 c B2 A2 | %17
[M:3/4] [Fd]6 |] %18
V:2
 z4 z2 [D,A,][D,A,] | [D,D]2 [D,D]2 [D,D]2 [D,A,][D,D] | [G,DG]2 [G,CG]2 [G,DG]2 [G,B,G][G,EG] | %3
 [A,EG]2[K:bass] [A,,A,][A,,A,] [A,,E,]2 [A,,A,]A,, | D,6 D,D, | [D,D]2 [D,D]2 [D,D]2 [D,A,][D,D] | %6
 [G,DG]2 [G,CG]2 [G,DG]2 [G,EG][F,D] | [E,C]2 F,F, E,2 E,>E, |[M:3/4] A,6 |[M:1/4] z2 | %10
[M:4/4] z2 [D,A,D]2 z/[K:treble] a/d'/f'/ z2 | z2[K:bass] [D,A,D]2 z/[K:treble] a/f'/d'/ Ad | %12
 c4[K:bass] z4 | .[DFAf]2 z2 z4 | [D,D]2 [D,D][D,D] [D,A,]2 [E,A,][F,D] | %15
 [G,B,G][G,B,G][G,B,G][G,B,G] [G,DG]4 | [A,CGA]3 [A,CGA] [A,DG]2 [A,G]2 |[M:3/4][K:bass] [D,A,]6 |] %18
V:3
 x8 | x8 | x8 | x8 | x8 | x8 | x8 | x8 |[M:3/4] x6 |[M:1/4] x2 |[M:4/4] z2 .F.A .[Ff]2 F2 | %11
 A3 A- A2 z2 | z2 z E [EGc]2 z2 | z z/ A/- A4 z2 | x8 | x8 | x8 |[M:3/4] x6 |] %18
V:4
 x8 | x8 | x8 | x8 | x8 | x8 | x8 | x8 |[M:3/4] x6 |[M:1/4] x2 |[M:4/4] z2 z/ F3/2 z4 | %11
 z2 z/ F3/2 z4 | z2 .[A,EG]2 z4 | z F z2 z4 | x8 | x8 | x8 |[M:3/4] x6 |] %18
V:5
 x8 | x8 | x8 | x2[K:bass] x6 | x8 | x8 | x8 | x8 |[M:3/4] x6 |[M:1/4] x2 | %10
[M:4/4] z4 [D,A,D]2[K:treble] z2 | z4[K:bass] [D,A,D]2[K:treble] z2 | %12
 z2[K:bass] E,2 [E,A,C]2 [A,CG]2 | D,2- [D,-A,DF]2 [D,A,DF]2 [D,A,D][D,A,] | x8 | x8 | x8 | %17
[M:3/4][K:bass] x6 |] %18
V:6
 x8 | x8 | x8 | x8 | x8 | x8 | x8 | x8 |[M:3/4] x6 |[M:1/4] x2 |[M:4/4] x8 | x8 | z2 z/ C3/2 z4 | %13
 x8 | x8 | x8 | x8 |[M:3/4] x6 |] %18

